svg/link.svg

<svg xmlns="http://www.w3.org/2000/svg" width="24" height="24" viewBox="0 0 24 24">
	<g fill="none" stroke="currentColor" stroke-width="2" stroke-linecap="round" stroke-linejoin="round">
		<path d="M13 6l2 -2c1 -1 3 -1 4 0l1 1c1 1 1 3 0 4l-5 5c-1 1 -3 1 -4 0M11 18l-2 2c-1 1 -3 1 -4 0l-1 -1c-1 -1 -1 -3 0 -4l5 -5c1 -1 3 -1 4 0" stroke-dasharray="32" stroke-dashoffset="32">
			<animate attributeName="stroke-dashoffset" values="32;0" dur="0.7s" fill="freeze" />
		</path>
	</g>
</svg>

<svg xmlns="http://www.w3.org/2000/svg" width="24" height="24" viewBox="0 0 24 24">
	<path d="M13 6L15 4C16 3 18 3 19 4L20 5C21 6 21 8 20 9L15 14C14 15 12 15 11 14M11 18L9 20C8 21 6 21 5 20L4 19C3 18 3 16 4 15L9 10C10 9 12 9 13 10" fill="none" stroke="currentColor" stroke-width="2" stroke-linecap="round" stroke-linejoin="round" stroke-dasharray="28" stroke-dashoffset="28">
		<animate attributeName="stroke-dashoffset" values="28;0" dur="0.6s" fill="freeze" />
	</path>
</svg>
